X: 43460
T: Year Of Jubilo
R: polka
M: 2/4
K: Dmajor
FE|:"D" D2F2 F2A2|"D" A2f2 "G"fedB|"D" A2F2 d2F2|"A" E4E2 FE|
"D"D2F2 F2A2|"D" A2f2 "G"fedB|"D" A2d2 "A"e2>c2|1 "D" d6 FE:|2 "D"d4d2 A2||
|:"G"B2>A2 B2c2|d2>e2 d2B2|"D" A2F2 d2F2|"A" E4E2 FE|
"D" D2F2 F2A2|"D" A2f2 "G"fedB|"D" A2d2 "A"e2>c2|1 "D"d4d2:|2 d6 FE||

